dist/images/service-6.svg

<svg xmlns="http://www.w3.org/2000/svg" width="132" height="123"><path fill-rule="evenodd" fill="#DB8306" d="M95.994 86.841V29.79h26.326v76.89c-12.007-.004-23.727-.022-35.445-.022V86.831l9.119.01zM34.728 28.835c2.446-2.456 3.676-5.694 3.692-8.937h-2.977c-.016 2.476-.955 4.946-2.822 6.82a9.625 9.625 0 01-6.679 2.833v-.039a9.562 9.562 0 01-.534.033c-.178-.006.122-.017-.532-.033v.039c-2.429-.042-4.546-.986-6.682-2.833a9.722 9.722 0 01-2.82-6.82h-2.977c.015 3.243 1.246 6.481 4.473 8.937 1.77 2.563 5.53 3.797 8.538 3.702 3.369.095 6.769-1.139 9.32-3.702zM11.704 14.626c0-3.753 1.406-7.77 4.496-10.674.947-1.125 2.234-2.003 3.609-2.636v4.85c0 1.822 2.742 1.821 2.742 0V.401a27.42 27.42 0 005.714 0v5.765c0 1.822 3.435 1.821 3.435 0v-4.85c.683.633 1.968 1.511 3.097 2.636 2.91 2.904 4.544 6.798 4.544 10.674h3.287c1.814 0 1.812 2.754 0 2.754H8.188c-1.811 0-1.814-2.754 0-2.754h3.516zm13.452 66.693v33.45c0 2.059-.839 3.932-2.188 5.791-2.468 2.428-7.598 2.425-10.52.05-.968-2.044-2.198-3.747-2.198-5.841V90.64c0-.646.004-.711.011-.776V75.377C6.23 78.709.5 75.497.5 70.84V43.695c0-3.571 2.292-6.195 5.901-6.195 6.158.01 12.316 0 18.475-.02h1.066c7.048.02 12.315.03 18.474.02 3.824 0 6.406 2.624 6.406 6.195V70.84c0 4.657-6.028 7.869-10.267 4.537v14.487c.007.065.012.13.012.776v24.129c0 2.094-.798 3.797-2.199 5.841-2.921 2.375-7.601 2.378-10.519-.05-1.35-1.859-2.19-3.732-2.19-5.791v-33.45h-.503zm.175-40.899c-6.111.01-12.619.03-18.93.03-2.015 0-3.843 1.157-3.843 3.245V70.84c0 4.117 7.686 3.952 7.686 0 0-6.36.017-12.71.017-18.862 0-1.868 2.959-1.848 2.959 0v37.886c.008.065.012.13.012.776v24.129c0 1.931.501 2.361 1.308 3.171 2.848 2.86 7.634.754 7.634-3.171V79.822c0-.826.669-1.497 1.492-1.497h3.484c.824 0 1.491.671 1.491 1.497v34.947c0 3.925 4.787 6.031 7.635 3.171 1.564-.81 1.309-1.24 1.309-3.171V90.64c0-.646.004-.711.011-.776V51.978c0-1.848 2.959-1.868 2.959 0 0 6.152.018 12.502.018 18.862 0 3.952 7.685 4.117 7.685 0V43.695c0-2.088-1.827-3.245-3.842-3.245-6.312 0-12.621-.02-18.93-.03h-.155zm41.004 12.74v-7.261c0-.923.6-1.527 1.519-1.527h16.804c.919 0 1.519.604 1.519 1.527v34.872h-3.798c-1.136.001-1.419.82-1.466 2.006-.025.67-.047 14.672-.055 21.823H76.75V54.544c0-.924-1.276-1.384-2.195-1.384h-8.22zm7.475 51.44l-.04-5.137v-41.86c0-.922-1.294-.833-2.213-.833H54.753c-.919 0-1.52-.089-1.52.833V101.4h-5.407c-.835 0-1.519.294-1.519 1.13 0 .837.686 2.03 1.519 2.03h2.368l.047.04H73.81zm18.063-77.89h2.647c-.336-.3-.196-.46-.047-.46h29.079c.149 0 .29.16.421.46h2.929c1.979 0 1.979 3.08 0 3.08h-1.192v76.88h4.769c.835 0 1.52.689 1.52 1.526 0 1.144-.687 1.526-1.52 1.526-26.218 0-52.049.004-78.654.004-2.02 0-2.021-3.068 0-3.068h32.004c-.002-6.319.026-19.994.06-20.874.046-1.187.329-2.006 1.465-2.006h7.6V29.79h-1.081c-1.98 0-1.98-3.08 0-3.08zm11.379 52.492h11.504c1.98 0 1.979 3.006 0 3.006h-11.504c-1.979 0-1.98-3.006 0-3.006zm0-6.203h11.504c1.98 0 1.979 3.601 0 3.601h-11.504c-1.979 0-1.98-3.601 0-3.601zm0-6.25h11.504c1.98 0 1.979 3.008 0 3.008h-11.504c-1.979 0-1.98-3.008 0-3.008zm0-12.357h11.504c1.98 0 1.979 3.007 0 3.007h-11.504c-1.979 0-1.98-3.007 0-3.007zm0-6.202h11.504c1.98 0 1.979 3.007 0 3.007h-11.504c-1.979 0-1.98-3.007 0-3.007zm0-12.452h11.504c1.98 0 1.979 3.007 0 3.007h-11.504c-1.979 0-1.98-3.007 0-3.007zm0 6.202h11.504c1.98 0 1.979 3.007 0 3.007h-11.504c-1.979 0-1.98-3.007 0-3.007zm0 18.702h11.504c1.98 0 1.979 3.006 0 3.006h-11.504c-1.979 0-1.98-3.006 0-3.006zM94.18 97.949h20.576c1.98 0 1.979 3.007 0 3.007H94.18c-1.978 0-1.979-3.007 0-3.007zm9.072-12.452h11.504c1.98 0 1.979 3.007 0 3.007h-11.504c-1.979 0-1.98-3.007 0-3.007zM94.18 91.7h20.576c1.98 0 1.979 3.007 0 3.007H94.18c-1.978 0-1.979-3.007 0-3.007z"/></svg>

<svg 
 xmlns="http://www.w3.org/2000/svg"
 xmlns:xlink="http://www.w3.org/1999/xlink"
 width="132px" height="123px">
<path fill-rule="evenodd"  fill="rgb(219, 131, 6)"
 d="M95.994,86.841 L95.994,29.79 L122.32,29.79 L122.32,106.680 C110.313,106.676 98.593,106.658 86.875,106.658 L86.875,86.831 L95.994,86.841 L95.994,86.841 ZM34.728,28.835 C37.174,26.379 38.404,23.141 38.420,19.898 L35.443,19.898 C35.427,22.374 34.488,24.844 32.621,26.718 C30.783,28.565 28.370,29.509 25.942,29.551 L25.942,29.512 C25.764,29.528 25.586,29.539 25.408,29.545 C25.230,29.539 25.53,29.528 24.876,29.512 L24.876,29.551 C22.447,29.509 20.33,28.565 18.194,26.718 C16.329,24.844 15.389,22.374 15.374,19.898 L12.397,19.898 C12.412,23.141 13.643,26.379 16.87,28.835 C18.640,31.398 22.40,32.632 25.408,32.537 C28.777,32.632 32.177,31.398 34.728,28.835 L34.728,28.835 ZM11.704,14.626 C11.704,10.873 13.110,6.856 16.20,3.952 C17.147,2.827 18.434,1.949 19.809,1.316 L19.809,6.166 C19.809,7.988 22.551,7.987 22.551,6.166 L22.551,0.401 C24.431,0.6 26.385,0.6 28.265,0.401 L28.265,6.166 C28.265,7.988 31.7,7.987 31.7,6.166 L31.7,1.316 C32.383,1.949 33.668,2.827 34.797,3.952 C37.707,6.856 39.341,10.750 39.341,14.626 L42.628,14.626 C44.442,14.626 44.440,17.380 42.628,17.380 L8.188,17.380 C6.377,17.380 6.374,14.626 8.188,14.626 L11.704,14.626 L11.704,14.626 ZM25.156,81.319 L25.156,114.769 C25.156,116.828 24.317,118.701 22.968,120.56 C20.50,122.988 15.370,122.985 12.448,120.61 C11.48,118.566 10.250,116.863 10.250,114.769 L10.250,90.64 C10.250,89.994 10.254,89.929 10.261,89.864 L10.261,75.377 C6.23,78.709 0.5,75.497 0.5,70.84 L0.5,43.695 C0.5,40.124 2.792,37.50 6.401,37.50 C12.559,37.51 18.717,37.50 24.876,37.48 L24.876,37.48 L25.331,37.48 L25.486,37.48 L25.942,37.48 L25.942,37.48 C32.99,37.50 38.257,37.51 44.416,37.50 C48.24,37.50 50.822,40.124 50.822,43.695 L50.822,70.84 C50.822,75.497 44.794,78.709 40.555,75.377 L40.555,89.864 C40.562,89.929 40.567,89.994 40.567,90.64 L40.567,114.769 C40.567,116.863 39.769,118.566 38.368,120.61 C35.447,122.985 30.767,122.988 27.849,120.56 C26.499,118.701 25.659,116.828 25.659,114.769 L25.659,81.319 L25.156,81.319 L25.156,81.319 ZM25.331,40.42 C19.22,40.43 12.712,40.45 6.401,40.45 C4.386,40.45 2.558,41.607 2.558,43.695 L2.558,70.84 C2.558,74.957 10.244,74.792 10.244,70.84 C10.244,64.48 10.261,58.13 10.261,51.978 C10.261,50.11 13.220,50.13 13.220,51.978 L13.220,89.864 C13.228,89.929 13.232,89.994 13.232,90.64 L13.232,114.769 C13.232,116.7 13.733,117.130 14.540,117.940 C17.388,120.800 22.174,118.694 22.174,114.769 L22.174,79.822 C22.174,78.996 22.843,78.325 23.666,78.325 L24.876,78.325 L25.942,78.325 L27.150,78.325 C27.974,78.325 28.641,78.996 28.641,79.822 L28.641,114.769 C28.641,118.694 33.428,120.800 36.276,117.940 C37.84,117.130 37.585,116.7 37.585,114.769 L37.585,90.64 C37.585,89.994 37.589,89.929 37.596,89.864 L37.596,51.978 C37.596,50.13 40.555,50.11 40.555,51.978 C40.555,58.13 40.573,64.48 40.573,70.84 C40.573,74.792 48.258,74.957 48.258,70.84 L48.258,43.695 C48.258,41.607 46.431,40.45 44.416,40.45 C38.104,40.45 31.795,40.43 25.486,40.42 L25.331,40.42 L25.331,40.42 ZM66.335,53.16 L66.335,45.899 C66.335,44.976 66.935,44.372 67.854,44.372 L84.658,44.372 C85.577,44.372 86.177,44.976 86.177,45.899 L86.177,80.771 L82.379,80.771 C81.243,80.772 80.960,81.591 80.913,82.777 C80.888,83.447 80.866,97.449 80.858,104.60 L76.75,104.60 L76.75,54.544 C76.75,53.620 75.474,53.16 74.555,53.16 L66.335,53.16 L66.335,53.16 ZM73.81,104.60 L73.77,99.463 L73.77,57.603 C73.77,56.681 72.476,56.77 71.557,56.77 L54.753,56.77 C53.834,56.77 53.233,56.681 53.233,57.603 L53.233,101.4 L47.826,101.4 C46.991,101.4 46.307,101.694 46.307,102.530 L46.307,102.530 C46.307,103.367 46.993,104.56 47.826,104.56 L50.194,104.56 L50.241,104.60 L73.81,104.60 L73.81,104.60 ZM91.873,26.71 L94.52,26.71 C94.184,26.41 94.324,26.25 94.473,26.25 L123.552,26.25 C123.701,26.25 123.842,26.41 123.973,26.71 L126.902,26.71 C128.881,26.71 128.881,29.79 126.902,29.79 L125.71,29.79 L125.71,106.670 L130.479,106.670 C131.314,106.670 131.999,107.359 131.999,108.196 L131.999,108.196 C131.999,109.34 131.312,109.722 130.479,109.722 C104.261,109.722 78.43,109.726 51.825,109.726 C49.805,109.726 49.804,106.658 51.825,106.658 L83.829,106.658 C83.827,100.339 83.855,86.664 83.889,85.784 C83.935,84.597 84.218,83.778 85.354,83.778 L92.954,83.778 L92.954,29.79 L91.873,29.79 C89.893,29.79 89.893,26.71 91.873,26.71 L91.873,26.71 ZM103.252,79.202 L114.756,79.202 C116.736,79.202 116.735,82.208 114.756,82.208 L103.252,82.208 C101.273,82.208 101.272,79.202 103.252,79.202 L103.252,79.202 ZM103.252,72.999 L114.756,72.999 C116.736,72.999 116.735,76.6 114.756,76.6 L103.252,76.6 C101.273,76.6 101.272,72.999 103.252,72.999 L103.252,72.999 ZM103.252,66.749 L114.756,66.749 C116.736,66.749 116.735,69.757 114.756,69.757 L103.252,69.757 C101.273,69.757 101.272,66.749 103.252,66.749 L103.252,66.749 ZM103.252,54.392 L114.756,54.392 C116.736,54.392 116.735,57.399 114.756,57.399 L103.252,57.399 C101.273,57.399 101.272,54.392 103.252,54.392 L103.252,54.392 ZM103.252,48.190 L114.756,48.190 C116.736,48.190 116.735,51.197 114.756,51.197 L103.252,51.197 C101.273,51.197 101.272,48.190 103.252,48.190 L103.252,48.190 ZM103.252,35.738 L114.756,35.738 C116.736,35.738 116.735,38.745 114.756,38.745 L103.252,38.745 C101.273,38.745 101.272,35.738 103.252,35.738 L103.252,35.738 ZM103.252,41.940 L114.756,41.940 C116.736,41.940 116.735,44.947 114.756,44.947 L103.252,44.947 C101.273,44.947 101.272,41.940 103.252,41.940 L103.252,41.940 ZM103.252,60.642 L114.756,60.642 C116.736,60.642 116.735,63.648 114.756,63.648 L103.252,63.648 C101.273,63.648 101.272,60.642 103.252,60.642 L103.252,60.642 ZM94.180,97.949 L114.756,97.949 C116.736,97.949 116.735,100.956 114.756,100.956 L94.180,100.956 C92.202,100.956 92.201,97.949 94.180,97.949 L94.180,97.949 ZM103.252,85.497 L114.756,85.497 C116.736,85.497 116.735,88.504 114.756,88.504 L103.252,88.504 C101.273,88.504 101.272,85.497 103.252,85.497 L103.252,85.497 ZM94.180,91.700 L114.756,91.700 C116.736,91.700 116.735,94.707 114.756,94.707 L94.180,94.707 C92.202,94.707 92.201,91.700 94.180,91.700 L94.180,91.700 Z"/>
</svg>
